dist/assets/images/logo.svg

<svg height="364" viewBox="0 0 1009 364" width="1009" xmlns="http://www.w3.org/2000/svg"><g fill="none" fill-rule="evenodd"><g stroke="#fff" stroke-width="8" transform="translate(142 98)"><path d="m632.597899 0h49.878447c6.720422 0 12.620677 4.46991933 14.439933 10.9394153l27.461028 97.6547537c.726633 2.583996.746571 5.315636.057733 7.909962l-27.634302 104.077303c-1.745499 6.573965-7.695916 11.150623-14.497665 11.150623h-49.705174c-6.811248 0-12.767471-4.589199-14.504198-11.175311l-26.597899-100.866029c-.661069-2.506944-.661069-5.142433 0-7.649378l26.597899-100.866028c1.736727-6.58611195 7.69295-11.175311 14.504198-11.175311z" stroke-opacity=".497283"/><path d="m484.597899 30h49.878447c6.720422 0 12.620677 4.4699193 14.439933 10.9394153l27.461028 97.6547537c.726633 2.583996.746571 5.315636.057733 7.909962l-27.634302 104.077303c-1.745499 6.573965-7.695916 11.150623-14.497665 11.150623h-49.705174c-6.811248 0-12.767471-4.589199-14.504198-11.175311l-26.597899-100.866029c-.661069-2.506944-.661069-5.142433 0-7.649378l26.597899-100.866028c1.736727-6.5861119 7.69295-11.175311 14.504198-11.175311z" stroke-opacity=".3"/><path d="m336.597899 0h49.878447c6.720422 0 12.620677 4.46991933 14.439933 10.9394153l27.461028 97.6547537c.726633 2.583996.746571 5.315636.057733 7.909962l-27.634302 104.077303c-1.745499 6.573965-7.695916 11.150623-14.497665 11.150623h-49.705174c-6.811248 0-12.767471-4.589199-14.504198-11.175311l-26.597899-100.866029c-.661069-2.506944-.661069-5.142433 0-7.649378l26.597899-100.866028c1.736727-6.58611195 7.69295-11.175311 14.504198-11.175311z" stroke-opacity=".497283"/><path d="m188.597899 30h49.878447c6.720422 0 12.620677 4.4699193 14.439933 10.9394153l27.461028 97.6547537c.726633 2.583996.746571 5.315636.057733 7.909962l-27.634302 104.077303c-1.745499 6.573965-7.695916 11.150623-14.497665 11.150623h-49.705174c-6.811248 0-12.767471-4.589199-14.504198-11.175311l-26.597899-100.866029c-.661069-2.506944-.661069-5.142433 0-7.649378l26.597899-100.866028c1.736727-6.5861119 7.69295-11.175311 14.504198-11.175311z" stroke-opacity=".3"/><path d="m41.5978988 0h49.8784474c6.720422 0 12.6206768 4.46991933 14.4399328 10.9394153l27.461028 97.6547537c.726633 2.583996.746571 5.315636.057733 7.909962l-27.634302 104.077303c-1.745499 6.573965-7.6959159 11.150623-14.4976646 11.150623h-49.7051746c-6.8112474 0-12.7674709-4.589199-14.5041978-11.175311l-26.59789882-100.866029c-.66106957-2.506944-.66106957-5.142433 0-7.649378l26.59789882-100.866028c1.7367269-6.58611195 7.6929504-11.175311 14.5041978-11.175311z" stroke-opacity=".497283"/></g><g fill="#fff"><g><path d="m13.645 65-13.59-64.98h11.52l8.73 42.48h.18l8.91-42.48h11.97l9 42.48h.18l8.64-42.48h11.61l-14.22 64.98h-11.97l-9.09-44.46h-.18l-9.81 44.46z" transform="translate(174 199)"/><path d="m.5 45.12v-23.22c0-16.02 8.46-21.78 20.52-21.78s20.52 5.76 20.52 21.78v23.22c0 16.02-8.46 21.78-20.52 21.78s-20.52-5.76-20.52-21.78zm12.42-24.84v26.46c0 7.2 3.15 9.18 8.1 9.18s8.1-1.98 8.1-9.18v-26.46c0-7.2-3.15-9.18-8.1-9.18s-8.1 1.98-8.1 9.18z" transform="translate(336 198)"/><path d="m43.06 65h-13.32l-10.8-26.46h-5.94v26.46h-12.42v-64.98h18c14.94 0 22.05 7.2 22.05 19.44 0 8.1-2.88 13.95-9.81 16.56zm-30.06-54.72v18h6.39c5.49 0 8.82-2.7 8.82-9s-3.33-9-8.82-9z" transform="translate(484 199)"/><path d="m32.475 65h-32.4v-64.98h12.42v54h19.98z" transform="translate(639 199)"/><path d="m6.08 65v-64.98h17.28c14.22 0 22.14 6.12 22.68 22.5v19.98c-.54 16.38-8.46 22.5-22.68 22.5zm12.42-54v43.02h4.32c6.84 0 10.8-3.24 10.8-12.96v-17.1c0-9.18-3.06-12.96-10.8-12.96z" transform="translate(777 199)"/></g><path d="m0 2.55301205h73.4994172c18.2278555 0 47.4316238 3.14216867 61.5435118 28.86867465 8.231935 14.7289157 8.035937 41.0445784-1.763986 57.3445784-13.719891 22.7807229-41.7476687 27.6903619-62.523504 27.6903619h-18.031857v40.651807h-52.723582zm52.723582 36.92048195v37.7060241h18.4238539c9.7999223 0 17.4438617-8.6409639 17.4438617-18.8530121 0-9.2301205-7.6439394-18.853012-17.4438617-18.853012zm106.035159-36.92048195v154.55542195h118.775059v-35.545783h-66.051477v-119.00963895zm233.042153 103.10240995-13.523893-29.4578316-13.327895 29.4578316zm-41.551671 32.6-8.623932 18.853012h-57.623543l91.923271-156.51927737h4.899962l91.923271 156.51927737h-57.623543l-8.623932-18.853012zm137.002914-137.66626537v156.51927737h52.723582v-58.5228918l100.939199 62.6469878h3.723971v-158.67951795h-52.723582v60.48674695l-99.175214-62.45060237zm289.293706 67.75301207 47.627622-17.2819277c-10.387917-30.046988-36.847707-51.060241-77.811383-51.060241-46.255633 0-83.887335 36.5277108-83.887335 81.5 0 44.972289 37.631702 81.5 83.887335 81.5 42.92366 0 69.775447-23.173494 78.987374-55.184337l-48.803613-12.9614461c-4.507964 11.3903611-13.523893 19.0493971-29.00777 19.0493971-18.031857 0-31.359751-14.9253007-31.359751-32.403614s13.327894-32.4036145 31.359751-32.4036145c15.483877 0 25.087801 7.8554217 29.00777 19.2457832zm146.998835 94.6578313c-48.215618 0-85.455323-36.527711-85.455323-81.5 0-44.9722892 36.847708-81.5 85.455323-81.5 48.999611 0 85.455322 36.5277108 85.455322 81.5 0 44.972289-36.455711 81.5-85.455322 81.5zm-31.751749-81.5c0 17.4783133 13.327895 32.403614 32.143745 32.403614 17.443862 0 31.359752-14.9253007 31.359752-32.403614s-13.327895-32.4036145-31.55575-32.4036145c-18.619852 0-31.947747 14.9253012-31.947747 32.4036145z" fill-rule="nonzero"/></g></g></svg>

<?xml version="1.0" encoding="UTF-8"?>
<svg width="1009px" height="364px" viewBox="0 0 1009 364" version="1.1" xmlns="http://www.w3.org/2000/svg" xmlns:xlink="http://www.w3.org/1999/xlink">
    <!-- Generator: Sketch 46.2 (44496) - http://www.bohemiancoding.com/sketch -->
    <title>logo</title>
    <desc>Created with Sketch.</desc>
    <defs></defs>
    <g id="Page-1" stroke="none" stroke-width="1" fill="none" fill-rule="evenodd">
        <g id="Logo" transform="translate(-683.000000, -313.000000)">
            <g id="logo" transform="translate(683.000000, 313.000000)">
                <g id="World" transform="translate(142.000000, 98.000000)">
                    <g id="World-BG" stroke="#FFFFFF" stroke-width="8">
                        <path d="M632.597899,0 L682.476346,0 L682.476346,-5.32907052e-15 C689.196768,-6.56359201e-15 695.097023,4.46991933 696.916279,10.9394153 L724.377307,108.594169 L724.377307,108.594169 C725.10394,111.178165 725.123878,113.909805 724.43504,116.504131 L696.800738,220.581434 L696.800738,220.581434 C695.055239,227.155399 689.104822,231.732057 682.303073,231.732057 L632.597899,231.732057 L632.597899,231.732057 C625.786651,231.732057 619.830428,227.142858 618.093701,220.556746 L591.495802,119.690717 L591.495802,119.690717 C590.834733,117.183773 590.834733,114.548284 591.495802,112.041339 L618.093701,11.175311 L618.093701,11.175311 C619.830428,4.58919905 625.786651,-4.07786467e-15 632.597899,-5.32907052e-15 Z" id="D" stroke-opacity="0.497282609"></path>
                        <path d="M484.597899,30 L534.476346,30 L534.476346,30 C541.196768,30 547.097023,34.4699193 548.916279,40.9394153 L576.377307,138.594169 L576.377307,138.594169 C577.10394,141.178165 577.123878,143.909805 576.43504,146.504131 L548.800738,250.581434 L548.800738,250.581434 C547.055239,257.155399 541.104822,261.732057 534.303073,261.732057 L484.597899,261.732057 L484.597899,261.732057 C477.786651,261.732057 471.830428,257.142858 470.093701,250.556746 L443.495802,149.690717 L443.495802,149.690717 C442.834733,147.183773 442.834733,144.548284 443.495802,142.041339 L470.093701,41.175311 L470.093701,41.175311 C471.830428,34.5891991 477.786651,30 484.597899,30 Z" id="L" stroke-opacity="0.3"></path>
                        <path d="M336.597899,0 L386.476346,0 L386.476346,-5.32907052e-15 C393.196768,-6.56359201e-15 399.097023,4.46991933 400.916279,10.9394153 L428.377307,108.594169 L428.377307,108.594169 C429.10394,111.178165 429.123878,113.909805 428.43504,116.504131 L400.800738,220.581434 L400.800738,220.581434 C399.055239,227.155399 393.104822,231.732057 386.303073,231.732057 L336.597899,231.732057 L336.597899,231.732057 C329.786651,231.732057 323.830428,227.142858 322.093701,220.556746 L295.495802,119.690717 L295.495802,119.690717 C294.834733,117.183773 294.834733,114.548284 295.495802,112.041339 L322.093701,11.175311 L322.093701,11.175311 C323.830428,4.58919905 329.786651,-4.07786467e-15 336.597899,-5.32907052e-15 Z" id="R" stroke-opacity="0.497282609"></path>
                        <path d="M188.597899,30 L238.476346,30 L238.476346,30 C245.196768,30 251.097023,34.4699193 252.916279,40.9394153 L280.377307,138.594169 L280.377307,138.594169 C281.10394,141.178165 281.123878,143.909805 280.43504,146.504131 L252.800738,250.581434 L252.800738,250.581434 C251.055239,257.155399 245.104822,261.732057 238.303073,261.732057 L188.597899,261.732057 L188.597899,261.732057 C181.786651,261.732057 175.830428,257.142858 174.093701,250.556746 L147.495802,149.690717 L147.495802,149.690717 C146.834733,147.183773 146.834733,144.548284 147.495802,142.041339 L174.093701,41.175311 L174.093701,41.175311 C175.830428,34.5891991 181.786651,30 188.597899,30 Z" id="O" stroke-opacity="0.3"></path>
                        <path d="M41.5978988,0 L91.4763462,0 L91.4763462,-5.32907052e-15 C98.1967682,-6.56359201e-15 104.097023,4.46991933 105.916279,10.9394153 L133.377307,108.594169 L133.377307,108.594169 C134.10394,111.178165 134.123878,113.909805 133.43504,116.504131 L105.800738,220.581434 L105.800738,220.581434 C104.055239,227.155399 98.1048221,231.732057 91.3030734,231.732057 L41.5978988,231.732057 L41.5978988,231.732057 C34.7866514,231.732057 28.8304279,227.142858 27.093701,220.556746 L0.495802183,119.690717 L0.495802183,119.690717 C-0.165267394,117.183773 -0.165267394,114.548284 0.495802183,112.041339 L27.093701,11.175311 L27.093701,11.175311 C28.8304279,4.58919905 34.7866514,-4.07786467e-15 41.5978988,-5.32907052e-15 Z" id="W" stroke-opacity="0.497282609"></path>
                    </g>
                    <g transform="translate(36.000000, 101.000000)" font-weight="bold" font-size="90" font-family="TradeGothic-BoldCondTwenty, Trade Gothic" fill="#FFFFFF" font-style="condensed">
                        <text id="W">
                            <tspan x="0.985" y="65">W</tspan>
                        </text>
                        <text id="O">
                            <tspan x="155" y="65">O</tspan>
                        </text>
                        <text id="R">
                            <tspan x="301" y="65">R</tspan>
                        </text>
                        <text id="L">
                            <tspan x="456.495" y="65">L</tspan>
                        </text>
                        <text id="D">
                            <tspan x="599.5" y="65">D</tspan>
                        </text>
                    </g>
                </g>
                <path d="M0,2.55301205 L73.4994172,2.55301205 C91.7272727,2.55301205 120.931041,5.69518072 135.042929,31.4216867 C143.274864,46.1506024 143.078866,72.4662651 133.278943,88.7662651 C119.559052,111.546988 91.5312743,116.456627 70.755439,116.456627 L52.723582,116.456627 L52.723582,157.108434 L0,157.108434 L0,2.55301205 Z M52.723582,39.473494 L52.723582,77.1795181 L71.1474359,77.1795181 C80.9473582,77.1795181 88.5912976,68.5385542 88.5912976,58.326506 C88.5912976,49.0963855 80.9473582,39.473494 71.1474359,39.473494 L52.723582,39.473494 Z M158.758741,2.55301205 L158.758741,157.108434 L277.5338,157.108434 L277.5338,121.562651 L211.482323,121.562651 L211.482323,2.55301205 L158.758741,2.55301205 Z M391.800894,105.655422 L378.277001,76.1975904 L364.949106,105.655422 L391.800894,105.655422 Z M350.249223,138.255422 L341.625291,157.108434 L284.001748,157.108434 L375.925019,0.589156627 L380.824981,0.589156627 L472.748252,157.108434 L415.124709,157.108434 L406.500777,138.255422 L350.249223,138.255422 Z M487.252137,0.589156627 L487.252137,157.108434 L539.975719,157.108434 L539.975719,98.5855422 L640.914918,161.23253 L644.638889,161.23253 L644.638889,2.55301205 L591.915307,2.55301205 L591.915307,63.039759 L492.740093,0.589156627 L487.252137,0.589156627 Z M776.545843,68.3421687 L824.173465,51.060241 C813.785548,21.013253 787.325758,0 746.362082,0 C700.106449,0 662.474747,36.5277108 662.474747,81.5 C662.474747,126.472289 700.106449,163 746.362082,163 C789.285742,163 816.137529,139.826506 825.349456,107.815663 L776.545843,94.8542169 C772.037879,106.244578 763.02195,113.903614 747.538073,113.903614 C729.506216,113.903614 716.178322,98.9783133 716.178322,81.5 C716.178322,64.0216867 729.506216,49.0963855 747.538073,49.0963855 C763.02195,49.0963855 772.625874,56.9518072 776.545843,68.3421687 Z M923.544678,163 C875.32906,163 838.089355,126.472289 838.089355,81.5 C838.089355,36.5277108 874.937063,0 923.544678,0 C972.544289,0 1009,36.5277108 1009,81.5 C1009,126.472289 972.544289,163 923.544678,163 Z M891.792929,81.5 C891.792929,98.9783133 905.120824,113.903614 923.936674,113.903614 C941.380536,113.903614 955.296426,98.9783133 955.296426,81.5 C955.296426,64.0216867 941.968531,49.0963855 923.740676,49.0963855 C905.120824,49.0963855 891.792929,64.0216867 891.792929,81.5 Z" id="PLANCO" fill="#FFFFFF"></path>
            </g>
        </g>
    </g>
</svg>
